X:1
T:Dugdale, 11.11.11.10 D
T:Adam Geibel, 1883
T:Dugdale, 11.11.11.10 D
T:Public Domain, 
T:Public Domain, 
C:Adam Geibel, 1883
Z:Public Domain,
%%score ( 1 2 ) ( 3 4 )
L:1/8
M:6/8
K:Ab
V:1 treble 
V:2 treble 
V:3 bass 
V:4 bass 
V:1
 [CE]3 [=B,=D]2 [CE] | [Ec]3 [EB]3 | [FB]2 [FA] [EG]2 [DF] | [DF]3 [CE]3 | [DE]3 [DF]2 [DG] | %5
 [CA]3 [CA]3 | [=Dc]2 [DB] (AB)[Dc] | ([DB]3 [DE]3) | [CE]3 [=B,=D]2 [CE] | [Ec]3 [EB]3 | %10
 [FB]2 [FA] [EG]2 [DF] | [DF]3 [CE]2 z | [EA]3 [Ec]2 [_Ge] | [Fe]3 [Fd]3 | [Ec]2 [DB] [DF]2 [DG] | %15
 [CA]3- [CA]2 z | [Ec]3 [EA]2 [EB] | [Ec]3- [Ec]2 [Ec] | [Fd]2 [Ec] [DB]2 [CA] | [Ec]3 [EB]2 z | %20
 [Gc]3 [=EG]2 [EB] | [FA]3- [FA]2 [FA] | [=Dc]2 [DB] (AB)[Dc] | ([D-B]3 [DE]3) | %24
 [CE]3 [=B,=D]2 [CE] | [Ec]3- [Ec]2 [DB] | [CA]2 [DB] [Ec]2 [_Ge] | [Fe]3 [Fd]3 | %28
 [DF]3 [Fc]2 [FB] | [EB]3 [EA]3 | [=DB]2 [DF] [_DA]2 [DG] | [CA]6 |] %32
V:2
 x6 | x6 | x6 | x6 | x6 | x6 | x3 =D2 x | x6 | x6 | x6 | x6 | x6 | x6 | x6 | x6 | x6 | x6 | x6 | %18
 x6 | x6 | x6 | x6 | x3 =D2 x | x6 | x6 | x6 | x6 | x6 | x6 | x6 | x6 | x6 |] %32
V:3
 [A,,A,]3 [A,,A,]2 [A,,A,] | [A,,A,]3 [C,A,]3 | [D,A,]2 [D,A,] [D,A,]2 [D,A,] | [A,,A,]3 [A,,A,]3 | %4
 [E,G,]3 [E,A,]2 [E,B,] | [F,A,]3 [F,A,]3 | [B,,A,]2 [B,,A,] [B,,F,]2 [B,,A,] | [E,G,]6 | %8
 [A,,A,]3 [A,,A,]2 [A,,A,] | [A,,A,]3 [C,A,]3 | [D,A,]2 [D,A,] [D,A,]2 [D,A,] | A,3 [A,,A,]2 z | %12
 [A,C]3 A,2 [C,A,] | [D,A,]3 [D,A,]3 | [E,A,]2 [E,G,] [E,B,]2 [E,B,] | [A,,A,]3- [A,,A,]2 z | %16
 [A,,A,]3 [C,A,]2 [E,G,] | A,3- A,2 A, | A,2 A, [A,,A,]2 [A,,A,] | [E,A,]3 [E,G,]2 z | %20
 [=E,C]3 [C,C]2 [C,C] | [F,C]3- [F,C]2 [F,C] | [B,,A,]2 [B,,A,] [B,,F,]2 [B,,A,] | [E,G,]6 | %24
 [A,,A,]3 [A,,A,]2 [A,,A,] | [A,,A,]3- [A,,A,]2 [A,,A,] | [A,,A,]2 [A,,A,] [A,,A,]2 [C,A,] | %27
 [D,A,]3 [D,A,]3 | [D,B,]3 [D,D]2 [D,D] | [E,C]3 [E,C]3 | [B,,A,]2 [B,,A,] [E,B,]2 [E,B,] | %31
 [A,,A,]6 |] %32
V:4
 x6 | x6 | x6 | x6 | x6 | x6 | x6 | x6 | x6 | x6 | x6 | A,3 x3 | x3 A,2 x | x6 | x6 | x6 | x6 | %17
 A,3- A,2 A, | A,2 A, x3 | x6 | x6 | x6 | x6 | x6 | x6 | x6 | x6 | x6 | x6 | x6 | x6 | x6 |] %32

